X:1
T:Rose of Sharon
T:  CHECK
M:3/4
L:1/4
K:A
+upbow+(ed)|"A"(c3/2d/)c|"E"(Bc)B|"A"A3-|A(Bc)|"D"(de)f|"A"e/(A/-Ac)|
"E"B3-|B(ed)|"A"(c2B)|ABc|"D"(d2e)|(f3/2a)g/f/|"A"e/A/-A d/E/|
"E"c2 (B/G/)|"A"A3-|A(cd)|"A7"ef =g/(f/4g/4|f3/2) (c/e)|"D"d3-|d3|
"B7"fg a/(g/4a/4|g2)(f/^d)|"E"e3-|efg|"A"(3(a/g/f/e)c|A/G/-G=G|
"D"FBd|f3/2 (a/ g/)f/|"A"e/A/-A d/E/|"E"c2 (B/G/)|"A"A3-|A||

